X:172
M:9/8
L:1/8
Q:3/8=90
K:G
g>fe dec Bcd|g>fe dec (B2d)|g>fe dec Bcd|B<AG GDG (A2B)|
g>fe dec Bcd|g>fe dec (B2d)|gba gfe dcB|B<AG GDG (A2B)||

